X:1
T:Vezzosa Pargoletta
T:Vezzosa Pargoletta
T:Claudio Saracini
T:Aria
T:Source : Le secondo Musische per cantar e sonar---Venetia---A.Vincenti---1620. Editor : André Vierendeels (05/12:15).
T:Notes : Original clefs : C1, F4 Text by Isabella Andreini (Rime 1601)
C:Claudio Saracini
%%score 1 2
L:1/8
Q:1/4=89
M:4/4
K:F
V:1 treble nm="Soprano" snm="S"
V:2 bass nm="BC" snm="BC"
V:1
 F3 F GABc | Acde f4- | f6 e2 | d8 | c8 :: dcde f3 e | d2 c2 B4 | A4 A4 | %8
w: Vez- zo- sa- Par- go- let-|ta, ch'ai del mio cor|_ l'im-|pe-|ro.|Vol- * * * * gi|quel lu- sin-|ghie- ro|
w: Bel- la ne- mi- ca mi-|a, a miei de- si-|* ri'ar-|den-|ti.|Da _ _ _ tuoi oc-|chi lu- cen-|* ti|
w: Per- che co- si ri- tro-|sa, ten stai dol- ce|_ mia|vi-|ta.|Non _ _ _ sei tu|for- se'ar- di-|ta, mi-|
w: A ti fin- gi mio co-|re, dor- mi- r'e sen-|* ti'e|ta-|ci.|I _ _ _ miei so-|spir lo- qua-|* ci|
w: Deh vez- zo- set- ta'e bel-|la, vi- brai tuoi dol-|* ci|ra-|i.|Non _ _ _ m'an- ci-|der con gua-|* i|
 A B/c/ dG A/B/c E/F/G/A/ | F4 F4 | fe d4 cB | A4 A4 | cd _e4 dc | d4 c4 | AB c4 BA | G8 | F8 :| %17
w: tuo sguar- * * do'e me _ _ fa- * * *|ce- ta,|che la dol- ce fe-|ti- ta,|mi da- ta glo- ri'e|vi- ta,|mi da- ta glo- ri'e|vi-|ta.|
w: un sguar- * * do so- * * lo'in- * * *|vi- a,|d'un sguar- do mi con-|ten- to,|per pre- mio'al mio tor-|men- to,|per pre- mio'al mio tor-|men-|to.|
w: rar mi _ _ ver- go- * * gno- * * *|* sa,|O pur fin- gi ti-|mo- re,|per tor- men- tar- m'il|co- re,|per tor- men- tar- m'il|co-|re.|
w: non cur- * * tal mio _ _ do- * * *|lo- re,|e per far- mi mo-|ri- re,|non vuoi le lu- ci'a-|pri- re,|non vuoi le lu- ci'a-|pri-|re.|
w: O mia _ _ lu- ce'O _ _ mia _ _ _|stel- la,|ma pria ch'io me con-|su- mi,|a- pri quei tuoi bei|lu- mi,|a- pri quei tuoi bei|lu-|mi.|
V:2
"^6)      Cru-     da l'ar- dor mi mie- ghi,    del-  le tuoi  lu-                             ci'ar-   den-\n7)       Ta-     ci lin- gua'im- pu-di- ca,   ra-  fre-  n'al   tuo______________fu-    ro-    \n8)       Ahi    ba-ci dun-que'ahi ba-ci,   non piu  prie- ghi'o______________la-     men-\n9)       A-      mor  tu che sei  fa-   bro, del ba-cio'el   por-                             mi'e   scoc-" F,4 F,,4 | %1
 F,2 D,C, B,,2 F,,2 | G,,8 | G,,8 | C,8 :: B,,4 B,,3 C, | D,2 F,2 G,4 | D,4 D,,4 | %8
"^6)    in- gra-        ta      non          ti_________pie-    ghi?       ohi  me    mi-       se- ro'ahi  las-  so,\n7)    che mi         ri-      pren-     di'e________di-       ca,         fol-  le'a- man-   te che      fa-      i?\n8)    vi- bra-        te'oc-  chi_____vi-                va-      ci,         ma  le   mor-        te sien    vi-      te,\n9)    que- sta       la     boc-         ca'el________ la-       bro,      e     fra  l'i-            r'e le      pa-     ci" F,G,- G,2 F,2 C,2 | %9
 F,,4 F,,4 | B,,4 B,,2 C,2 | F,,4 F,,4 | C,4 G,,4- | G,,4 C,4 | F,,2 A,,B,, C,4 | C,8 | F,,8 :| %17

